X:42
T:Reil\"ander fr{\aa}n Gruer finnskog
R:reil\"ander
O:Norge
Z:id:hn-schottis-42
M:C|
L:1/8
K:D
A>GF>A d2d2 | d>cA>c e2e2 | e>fg>a f>de>c | d>BG>B B2A2 |
A>GF>A d2d2 | d>cA>c e2e2 | e>fg>a f>de>c |1 d2d2 d4 :|2 d2d2 d3 ||
|: f | a2 (3fff f2f>a | a>g (3eee e>fe>f | g>fd>f a>ge>c | d>BG>B B2A2 |
a2 (3fff f2f>a | a>g (3eee e>fe>f | g>fd>f a>ge>c |1 d2d2 d3 :|2 d2d2 d4 ||
|: A>Bc>d e2e>f | f>ed>f f2e2 | A>Bc>d e2e>a | a>a^g>b a4 |
A>Bc>d e2e>f | f>ed>f f2e2 | g>fd>f a>ge>c | d2d2 d4 :|

